images/linkedin-logo.svg

<svg enable-background="new 0 0 430.117 430.118" height="512" viewBox="0 0 430.117 430.118" width="512" xmlns="http://www.w3.org/2000/svg"><path d="m398.355 0h-366.573c-17.553 0-31.78 13.793-31.78 30.817v368.471c0 17.025 14.232 30.83 31.78 30.83h366.573c17.549 0 31.76-13.814 31.76-30.83v-368.471c0-17.019-14.211-30.817-31.76-30.817zm-267.955 360.038h-64.987v-194.193h64.987zm-32.487-220.723h-.437c-21.793 0-35.92-14.904-35.92-33.563 0-19.035 14.542-33.535 36.767-33.535 22.227 0 35.899 14.496 36.331 33.535 0 18.663-14.099 33.563-36.741 33.563zm266.746 220.723h-64.966v-103.9c0-26.107-9.413-43.921-32.907-43.921-17.973 0-28.642 12.018-33.327 23.621-1.736 4.144-2.166 9.94-2.166 15.728v108.468h-64.954s.85-175.979 0-194.192h64.964v27.531c8.624-13.229 24.035-32.1 58.534-32.1 42.76 0 74.822 27.739 74.822 87.414zm-133.776-166.048c.111-.182.266-.401.42-.614v.614z" fill="#fff"/></svg>

<?xml version="1.0"?>
<svg xmlns="http://www.w3.org/2000/svg" xmlns:xlink="http://www.w3.org/1999/xlink" version="1.1" id="Capa_1" x="0px" y="0px" width="512px" height="512px" viewBox="0 0 430.117 430.118" style="enable-background:new 0 0 430.117 430.118;" xml:space="preserve" class=""><g><g>
	<path id="LinkedIn__x28_alt_x29_" d="M398.355,0H31.782C14.229,0,0.002,13.793,0.002,30.817v368.471   c0,17.025,14.232,30.83,31.78,30.83h366.573c17.549,0,31.76-13.814,31.76-30.83V30.817C430.115,13.798,415.904,0,398.355,0z    M130.4,360.038H65.413V165.845H130.4V360.038z M97.913,139.315h-0.437c-21.793,0-35.92-14.904-35.92-33.563   c0-19.035,14.542-33.535,36.767-33.535c22.227,0,35.899,14.496,36.331,33.535C134.654,124.415,120.555,139.315,97.913,139.315z    M364.659,360.038h-64.966V256.138c0-26.107-9.413-43.921-32.907-43.921c-17.973,0-28.642,12.018-33.327,23.621   c-1.736,4.144-2.166,9.94-2.166,15.728v108.468h-64.954c0,0,0.85-175.979,0-194.192h64.964v27.531   c8.624-13.229,24.035-32.1,58.534-32.1c42.76,0,74.822,27.739,74.822,87.414V360.038z M230.883,193.99   c0.111-0.182,0.266-0.401,0.42-0.614v0.614H230.883z" data-original="#000000" class="active-path" data-old_color="#ffffff" fill="#ffffff"/>
</g></g> </svg>
